X:1
T:Dumbarton's Drums
M:4/4
L:1/4
K:G
 z G G A| B4-| B B c B| B A3-| A A A B| c4-| c d e d| d B3-| B d d d|\
 g4-| g g f e| e d3-| d B B e| d4-| d B c A| G4-| G z3|
